X:1
T: Miss Betsy Robertson
C:
R:Strathspey
Q: 128
K:G
M:4/4
L:1/16
|:B2|d4 g3d B3G d3B|A3a a3g f3d e3f|g3f g3d e3c d3B|c3A d3c BG3 G2B2|
d4 g3d B3G d3B|A3a a3g f3d e3f|g3f g3d e3c d3B|c3A d3c BG3 G2c2|
((3B2A2G2) D3G E3G D3G|A3B c3B c3e d3c|((3B2A2G2) D3G E3G c3e|d3B c3A BG3 G3c|
((3B2A2G2) D3G E3G D3G|A3B c3B c3e d3c|B3d g3B c3e a3g|f3d e3f g4-g2:|
